assets/icons/sprk_match.svg

<svg width="16" height="18" viewBox="0 0 16 18" fill="none" xmlns="http://www.w3.org/2000/svg">
<path d="M11.6494 7.43449C12.3647 6.933 13.3009 6.93692 13.9735 7.44421C14.3116 7.69921 14.5542 8.06109 14.6648 8.47553C14.885 9.29999 14.551 10.1943 13.8357 10.6958L13.677 10.8071C13.4747 10.9489 13.2523 11.0578 13.0183 11.1295L12.6269 11.2496C11.8615 11.4843 11.0517 11.2048 10.6165 10.5556C10.1813 9.90635 10.2183 9.03317 10.7084 8.38782L10.9591 8.05771C11.1089 7.86041 11.2884 7.68753 11.4907 7.54572L11.6494 7.43449Z" fill="url(#paint0_linear_553_1561)"/>
<path d="M9.48741 10.7521C9.35414 10.4536 9.28751 10.3043 9.19818 10.2652C9.10886 10.226 9.00853 10.2883 8.80789 10.4128L1.70977 15.2484C0.853857 15.7797 0.572466 16.045 1.28563 17.1897C1.9988 18.3344 2.33438 18.1084 3.12762 17.4836L10.2675 12.5901C10.4535 12.4436 10.5464 12.3704 10.5429 12.271C10.5394 12.1717 10.4273 12.0543 10.2031 11.8196C10.0574 11.6671 9.92224 11.4992 9.80027 11.3173C9.67831 11.1354 9.57397 10.9459 9.48741 10.7521Z" fill="url(#paint1_linear_553_1561)"/>
<path d="M15.6648 7.25804C15.6214 7.38091 15.475 7.38449 15.4225 7.2649C15.2403 6.84967 14.956 6.49069 14.5913 6.22084C13.6253 5.50605 12.2598 5.52981 11.2014 6.27983L10.9667 6.44618C10.6674 6.65827 10.4004 6.91473 10.176 7.20567L9.80055 7.69246C9.75305 7.75404 9.70828 7.81695 9.66627 7.881C9.4758 8.17142 9.38057 8.31663 9.26881 8.30084C9.15705 8.28504 9.11132 8.14869 9.01987 7.87598C8.93028 7.60882 8.87336 7.31898 8.84912 7.00645C8.81139 6.52001 8.84665 6.09835 8.9549 5.74148C9.06968 5.37669 9.20867 5.04711 9.37184 4.75272C9.53445 4.45096 9.68397 4.16504 9.82042 3.89497C9.95629 3.61752 10.0333 3.31868 10.0514 2.99845C10.0545 2.94631 10.07 2.91545 10.0978 2.90588C10.1322 2.88839 10.1684 2.893 10.2062 2.91973C10.4728 3.12895 10.6988 3.36726 10.8841 3.63467C11.0127 3.80863 11.1341 3.99315 11.2482 4.18822C11.3258 4.32078 11.3646 4.38707 11.4223 4.38341C11.48 4.37976 11.5077 4.31447 11.5631 4.1839C11.7288 3.79339 11.8354 3.29166 11.8831 2.67871C11.9434 1.88809 11.8921 1.04307 11.7294 0.143672C11.7197 0.0991992 11.7244 0.0648719 11.7434 0.0406904C11.7472 0.0359247 11.749 0.0335419 11.7519 0.0304685C11.7548 0.0273951 11.7573 0.0251678 11.7623 0.020713C11.788 -0.0022567 11.8237 -0.005661 11.8693 0.0105002C12.6813 0.333204 13.3744 0.783744 13.9487 1.36212C14.523 1.94049 14.97 2.58433 15.2897 3.29363C15.6165 4.00238 15.8079 4.71791 15.864 5.4402C15.9206 6.16987 15.8223 6.5027 15.6648 7.25804Z" fill="url(#paint2_linear_553_1561)"/>
<defs>
<linearGradient id="paint0_linear_553_1561" x1="-2.05466" y1="18.0519" x2="27.4111" y2="6.15639" gradientUnits="userSpaceOnUse">
<stop stop-color="#FF97CD"/>
<stop offset="1" stop-color="#FF349D"/>
</linearGradient>
<linearGradient id="paint1_linear_553_1561" x1="-2.05466" y1="18.0519" x2="27.4111" y2="6.15639" gradientUnits="userSpaceOnUse">
<stop stop-color="#FF97CD"/>
<stop offset="1" stop-color="#FF349D"/>
</linearGradient>
<linearGradient id="paint2_linear_553_1561" x1="-2.05466" y1="18.0519" x2="27.4111" y2="6.15639" gradientUnits="userSpaceOnUse">
<stop stop-color="#FF97CD"/>
<stop offset="1" stop-color="#FF349D"/>
</linearGradient>
</defs>
</svg>

<svg xmlns="http://www.w3.org/2000/svg" width="16" height="18" fill="none" viewBox="0 0 16 18"><path fill="url(#a)" d="M11.65 7.434c.715-.501 1.65-.497 2.323.01a1.9 1.9 0 0 1 .692 1.032c.22.824-.114 1.718-.83 2.22l-.158.111c-.202.142-.425.25-.659.322l-.391.12a1.775 1.775 0 0 1-2.01-.693c-.436-.65-.399-1.523.091-2.168l.251-.33q.227-.298.532-.512z"/><path fill="url(#b)" d="M9.487 10.752c-.133-.298-.2-.448-.289-.487-.09-.039-.19.023-.39.148L1.71 15.248c-.856.532-1.138.797-.424 1.942.713 1.144 1.048.918 1.842.294l7.14-4.894c.185-.146.278-.22.275-.319-.004-.1-.116-.217-.34-.451a3.8 3.8 0 0 1-.716-1.068"/><path fill="url(#c)" d="M15.665 7.258c-.044.123-.19.126-.242.007a2.6 2.6 0 0 0-.832-1.044c-.966-.715-2.331-.691-3.39.059l-.234.166a3.7 3.7 0 0 0-.791.76l-.375.486a3 3 0 0 0-.135.189c-.19.29-.285.436-.397.42s-.158-.152-.25-.425a3.6 3.6 0 0 1-.17-.87q-.056-.73.106-1.265.173-.546.417-.988.243-.453.448-.858.204-.416.231-.897.005-.078.047-.092.051-.027.108.014.4.313.678.715.193.26.364.553c.078.133.117.2.174.195.058-.003.086-.069.141-.2q.249-.585.32-1.504.091-1.186-.154-2.535-.015-.068.014-.103l.009-.01.01-.01q.04-.035.107-.01a6 6 0 0 1 2.08 1.351 6.6 6.6 0 0 1 1.34 1.932q.491 1.063.575 2.146c.057.73-.042 1.063-.2 1.818"/><defs><linearGradient id="a" x1="-2.055" x2="27.411" y1="18.052" y2="6.156" gradientUnits="userSpaceOnUse"><stop stop-color="#ff97cd"/><stop offset="1" stop-color="#ff349d"/></linearGradient><linearGradient id="b" x1="-2.055" x2="27.411" y1="18.052" y2="6.156" gradientUnits="userSpaceOnUse"><stop stop-color="#ff97cd"/><stop offset="1" stop-color="#ff349d"/></linearGradient><linearGradient id="c" x1="-2.055" x2="27.411" y1="18.052" y2="6.156" gradientUnits="userSpaceOnUse"><stop stop-color="#ff97cd"/><stop offset="1" stop-color="#ff349d"/></linearGradient></defs></svg>
